!!!OTL: 26. Lied an Schleswig-Holſtein.
!!!COM: C. G. Bellmann
!!!ODT: 1844
!!!ARE: Europa, Mitteleuropa, Deutschland, Schleswig - Holstein
!!!SCT: B0026
!!!TXL: @@DE
!!!YEM: Copyright 1995, estate of Helmut Schaffrath.
**kern	**text
*ICvox	*
*Ivox	*
*M4/4	*
*met(c)	*
*clefG2	*
*k[]	*
*C:	*
!LO:TX:a:t=Mit Kraft und Feuer	!
{8.g	Schles-
16b	-wig-
=1	=1
4cc	-Hol-
4cc	-ſtein,
8eeL	meer-
8ddJ	.
8ccL	-um-
8ddJ	.
=2	=2
(4.ee	-ſchlun-
8dd)	.
4cc}	-gen,
{8dd	deut-
8ee	-ſcher
=3	=3
4ff	Sit-
8eeL	-te
8ddJ	.
4cc	ho-
4dd	-he
=4	=4
2ee}	Wacht,
{4.dd^	wah-
8cc	-re
=5	=5
8ccL	treu,
8bJ	.
4b	was
4.ee^	ſchwer
8dd	er-
=6	=6
8ddL	-run-
8ccJ	.
4cc}	-gen,
{4.ee^	bis
8ee	ein
=7	=7
4dd	ſchön-
4cc	-rer
4b/	Mor-
4a	-gen
=8	=8
2g}	tagt!
{4cc	Schleswig-
4g	.
=9	=9
4dd	-Hol-
4g	-ſtein
4ee	ſtammver-
8ffL	.
8eeJ	.
=10	=10
2dd}	-wandt,
{4ee	wan-
4ee	-ke
=11	=11
2.ff	nicht,
8eeL	mein
8ddJ	.
=12	=12
2cc	Va-
2dd	-ter-
=13	=13
2ee}	-land!
=||	=||
!LO:TX:a:t=Allgemeiner Chor.	!
{4cc	Schles-
4g	-wig-
=14	=14
4dd	-Hol-
4g	-ſtein,
4ee	ſtammder-
8ffL	.
8eeJ	.
=15	=15
2dd}	-wandt,
{4ee	wan-
4ee	-ke
=16	=16
!LO:TX:a:t=P:2a in the score:problem	!
2.aa	nicht,
8ffL	mein
8ddJ	.
=17	=17
2gg	Va-
2b	-ter-
=18	=18
2cc	-land!
4r}	.
==	==
!!!AGN: politisch, national, Vaterlands - Lied
!!!GTL: Vaterlandslieder und Heimathgrüße
!!!ONB: ESAC (Essen Associative Code) Database: BOEHME
!!!AMT: simple quadruple
!!!AIN: vox
!!!EED: Helmut Schaffrath
!!!EEV: 1.0
!!@@COMMENT:"Text von Matthäus Friedr. Chemniß, Advokat in Schleswig 1844, abgefaßt nach einem
!!ältern Gedicht gleichen Anfangs von Carl Friedr. Straß 1842."
!!Text: Matthäus Friedr. Chemniß
!!@@END:
!!!URL-scan: https://archive.org/details/BoehmeVtLieder1895/page/n45/mode/2up
!!!ENC: Anna Maria Matuszewska
!!!EEV: 2024/14/06
*-	*-
